src/icons/solid/symbols/delete.svg

<svg width="24" height="24" viewBox="0 0 24 24" fill="none" xmlns="http://www.w3.org/2000/svg">
<g clip-path="url(#clip0_4191_751)">
<path fill-rule="evenodd" clip-rule="evenodd" d="M14.1064 1L14.3145 1.01074C14.7966 1.05863 15.2501 1.27155 15.5957 1.61719C15.9906 2.0122 16.2129 2.54786 16.2129 3.10645V4.74512H22.2979L22.4395 4.75879C22.7592 4.82425 22.9998 5.10721 23 5.44629C23 5.83406 22.6856 6.14844 22.2979 6.14844H20.3135L19.1855 21.0225C19.1595 21.3096 19.0634 21.7963 18.7246 22.2246C18.3593 22.6865 17.778 22.996 16.9648 22.9961H7.04688C6.70961 23.0162 6.19911 22.9681 5.73633 22.6445C5.23111 22.2912 4.90395 21.6951 4.84082 20.8535C4.78806 20.1502 4.56328 17.3652 4.30859 14.2012C4.08526 11.4267 3.83849 8.35982 3.66309 6.14844H1.70215C1.31437 6.14844 1 5.83406 1 5.44629C1.00025 5.05873 1.31453 4.74512 1.70215 4.74512H7.78711V3.10645C7.78711 2.5478 8.00927 2.01221 8.4043 1.61719C8.79932 1.22216 9.33491 1 9.89355 1H14.1064ZM9.89355 9.65918C9.50591 9.65918 9.19162 9.97373 9.19141 10.3613V17.3828C9.19141 17.7706 9.50578 18.085 9.89355 18.085C10.2813 18.0849 10.5957 17.7705 10.5957 17.3828V10.3613C10.5955 9.97379 10.2811 9.65927 9.89355 9.65918ZM14.1064 9.65918C13.7188 9.65918 13.4045 9.97373 13.4043 10.3613V17.3828C13.4043 17.7706 13.7187 18.085 14.1064 18.085C14.4941 18.0848 14.8086 17.7705 14.8086 17.3828V10.3613C14.8084 9.97383 14.494 9.65934 14.1064 9.65918ZM9.89355 2.4043C9.70734 2.4043 9.52914 2.47868 9.39746 2.61035C9.26579 2.74203 9.19141 2.92023 9.19141 3.10645V4.74512H14.8086V3.10645C14.8086 2.92029 14.7341 2.74201 14.6025 2.61035C14.5038 2.51166 14.379 2.44498 14.2441 2.41797L14.1064 2.4043H9.89355Z" fill="#3C3B44"/>
</g>
<defs>
<clipPath id="clip0_4191_751">
<rect width="24" height="24" fill="white"/>
</clipPath>
</defs>
</svg>

<svg xmlns="http://www.w3.org/2000/svg" width="24" height="24" fill="none" viewBox="0 0 24 24"><g clip-path="url(#a)"><path fill="currentColor" d="M14.106 1a2.107 2.107 0 0 1 2.107 2.106v1.64h6.085a.702.702 0 1 1 0 1.402h-1.984l-1.128 14.875a2.3 2.3 0 0 1-.461 1.202c-.366.461-.947.771-1.76.771H7.047a2.08 2.08 0 0 1-1.31-.351c-.506-.354-.833-.95-.896-1.791-.053-.704-.278-3.488-.532-6.653-.224-2.774-.47-5.841-.645-8.053H1.702a.702.702 0 0 1 0-1.403h6.085V3.106A2.106 2.106 0 0 1 9.894 1zM9.894 9.66a.7.7 0 0 0-.703.702v7.022a.703.703 0 0 0 1.405 0v-7.022a.7.7 0 0 0-.702-.702m4.212 0a.7.7 0 0 0-.702.702v7.022a.703.703 0 0 0 1.405 0v-7.022a.7.7 0 0 0-.703-.702M9.894 2.404a.7.7 0 0 0-.703.702v1.64h5.618v-1.64a.7.7 0 0 0-.703-.702z"/></g><defs><clipPath id="a"><path fill="currentColor" d="M0 0h24v24H0z"/></clipPath></defs></svg>
